resources/svg/section-add-o.svg

<svg xmlns="http://www.w3.org/2000/svg" viewBox="0 0 15 15" fill="none"><path d="M4 0.5H1.5C0.947715 0.5 0.5 0.947715 0.5 1.5V4M6 0.5H9M11 0.5H13.5C14.0523 0.5 14.5 0.947715 14.5 1.5V4M0.5 6V9M14.5 6V9M0.5 11V13.5C0.5 14.0523 0.947715 14.5 1.5 14.5H4M14.5 11V13.5C14.5 14.0523 14.0523 14.5 13.5 14.5H11M7.5 4V11M4 7.5H11M6 14.5H9" stroke="black"/></svg>

<svg xmlns="http://www.w3.org/2000/svg" viewBox="0 0 15 15" fill="none"><path d="M4 .5H1.5a1 1 0 00-1 1V4M6 .5h3m2 0h2.5a1 1 0 011 1V4M.5 6v3m14-3v3m-14 2v2.5a1 1 0 001 1H4M14.5 11v2.5a1 1 0 01-1 1H11M7.5 4v7M4 7.5h7m-5 7h3" stroke="currentColor"/></svg>
